!!!OTL: 643. Der Bluemlein Antwort.
!!!ARE: Europa, Mitteleuropa, Deutschland, Hochwald, Bruchweiler
!!!SCT: B0643
!!!TXL: @@DE
!!!YEM: Copyright 1995, estate of Helmut Schaffrath.
**kern	**text
*ICvox	*
*Ivox	*
*M2/4	*
*k[f#c#g#]	*
*A:	*
{8e	Jn
=1	=1
8a	meines
8a	.
8a	Va-
16cc#L	-ters
16bJ	.
=2	=2
4a	Gar-
8a}	-ten,
{8e	da
=3	=3
8a	war's
8a	noch
8a	ge-
8cc#	-ſtern
=4	=4
4b	grün,
8r}	.
{8e	da
=5	=5
8dd	ſah
8dd	ich
8dd	noch
8dd	ſo
=6	=6
8cc#	man-
8ee	-cher-
8cc#}	-lei
{8a	ſo
=7	=7
8b	ſchö-
8dd	-ne
8b	Blu-
8g#	-men
=8	=8
(8aL	blühn.
8cc#	.
8eeJ)}	.
{8e	da
=9	=9
8dd	ſah
8dd	ich
8dd	noch
8dd	ſo
=10	=10
8cc#	man-
8ee	-cher-
8cc#}	-lei
{8a	ſo
=11	=11
8b	ſchö-
8dd	-ne
8b	Blu-
8g#	-men
=12	=12
4a	blühn.
8r}	.
==	==
!!!AGN: Kinder -, Jahreszeiten - Lied, Winter, religioes
!!!ONB: ESAC (Essen Associative Code) Database: BOEHME
!!!AMT: simple duple
!!!AIN: vox
!!!EED: Helmut Schaffrath
!!!EEV: 1.0
!!!GTL: Kinderlieder
!!Jn Bruchweiler (im Hochwald) von der kathol. Jugend viel gesungen.
!!@@COMMENT:"Aus K. Becker's handſchriftl. Sammlung. 1894."
!!@@END:
!!!URL-scan: https://archive.org/details/BoehmeVtLieder1895/page/n501/mode/2up
!!!ENC: Anna Maria Matuszewska
!!!EEV: 2024/16/07
*-	*-
